!!!ONB: MCCC : IJH0403_02 : Extracted Monophonic Melody
!!!COM: Haydn, Joseph
!!!OPR: String Quartet in B minor
!!!OMV: 2
!!!SCT: Hob.III:37 ; Op.33 No.1
!!!ODT: 1781///
**kern
*thru
*k[f#c#]
*b:
*clefG
*M3/4
4B
=1
4d
4f#
4b
=2
4a#
4cc#
4f#
=3
4b
4dd
4ff#
=4
2ff#
4ff#
=5
4ff#
4ff#
4ff#
=6
2ff#
8ff#
8ff#
=7
8ff#
8ff#
8ff#
8ff#
8ff#
8ff#
=8
2ff#
4gg
=9
4gg
4gg
4gg
=10
2bb
4gg
=11
4ee
4cc#
4a
=12
4dd
2r
=13
2r
4cc#
=14
4dd
4aa
4cc
=15
4b
4r
4dd#
=16
4ee
4bb
4dd
=17
4cc#
4r
4ee#
=18
4ff#
4ccc#
4ee
=19
4dd
4ff#
4a#
=20
4b
4dd
4e#
=21
4f#
2r
=22
4g
4r
4B
=23
4d
4f#
4b
=24
4a#
4cc#
4f#
=25
4b
4dd
4ff#
=26
2ff#
4ff#
=27
4ff#
4ff#
4ff#
=28
2ff#
8ff#
8ff#
=29
8ff#
8ff#
8ff#
8ff#
8ff#
8ff#
=30
2ff#
4ee#
=31
4ee#
4ee#
4ee#
=32
2ee
4gg
=33
4gg
4gg
4gg
=34
4ff#
4bb
4dd
=35
4cc#
4ee
4a#
=36
4b
2r
=37
2.r
=38
2r
4b
=39
4cc#
4dd#
4ee
=40
4dd#
2r
=41
2.r
=42
2r
4dd#
=43
4ee
4ff#
4gg#
=44
2ff#
4ee
=45
2.dd#
=46
4ee#
4ff#
4gg#
=47
2.ff#
=48
4gg#
4aa#
4bb
=49
4aa#
4ff#
4ff#
=50
4ff#
4r
4ff#
=51
4ee
4dd#
4cc#
=52
4b
4r
4gg#
=53
4ff#
4ee
4dd#
=54
4cc#
2r
=55
2r
4f#
=56
4g#
4a#
4b
=57
4cc#
4r
4ee
=58
4ff#
4gg#
4aa#
=59
4bb
4ccc#
4ddd#
=60
4eee
4fff#
4ggg#
=61
4fff#
4bb
4aa#
=62
4bb
2r
==
*-
